images/50093314.svg

<?xml version="1.0" encoding="UTF-8"?>
<svg xmlns="http://www.w3.org/2000/svg" xmlns:xlink="http://www.w3.org/1999/xlink" width="300pt" height="300pt" viewBox="0 0 300 300" version="1.1">
<defs>
<g>
<symbol overflow="visible" id="glyph0-0">
<path style="stroke:none;" d="M 0.453125 1.59375 L 0.453125 -6.34375 L 4.953125 -6.34375 L 4.953125 1.59375 Z M 0.953125 1.09375 L 4.453125 1.09375 L 4.453125 -5.84375 L 0.953125 -5.84375 Z M 0.953125 1.09375 "/>
</symbol>
<symbol overflow="visible" id="glyph0-1">
<path style="stroke:none;" d="M 3.546875 -5.953125 C 2.898438 -5.953125 2.382812 -5.710938 2 -5.234375 C 1.625 -4.753906 1.4375 -4.101562 1.4375 -3.28125 C 1.4375 -2.445312 1.625 -1.789062 2 -1.3125 C 2.382812 -0.832031 2.898438 -0.59375 3.546875 -0.59375 C 4.191406 -0.59375 4.703125 -0.832031 5.078125 -1.3125 C 5.453125 -1.789062 5.640625 -2.445312 5.640625 -3.28125 C 5.640625 -4.101562 5.453125 -4.753906 5.078125 -5.234375 C 4.703125 -5.710938 4.191406 -5.953125 3.546875 -5.953125 Z M 3.546875 -6.6875 C 4.460938 -6.6875 5.195312 -6.375 5.75 -5.75 C 6.300781 -5.132812 6.578125 -4.3125 6.578125 -3.28125 C 6.578125 -2.238281 6.300781 -1.410156 5.75 -0.796875 C 5.195312 -0.179688 4.460938 0.125 3.546875 0.125 C 2.617188 0.125 1.878906 -0.179688 1.328125 -0.796875 C 0.773438 -1.410156 0.5 -2.238281 0.5 -3.28125 C 0.5 -4.3125 0.773438 -5.132812 1.328125 -5.75 C 1.878906 -6.375 2.617188 -6.6875 3.546875 -6.6875 Z M 3.546875 -6.6875 "/>
</symbol>
<symbol overflow="visible" id="glyph0-2">
<path style="stroke:none;" d="M 0.890625 -6.5625 L 2.078125 -6.5625 L 4.984375 -1.078125 L 4.984375 -6.5625 L 5.84375 -6.5625 L 5.84375 0 L 4.65625 0 L 1.75 -5.484375 L 1.75 0 L 0.890625 0 Z M 0.890625 -6.5625 "/>
</symbol>
<symbol overflow="visible" id="glyph0-3">
<path style="stroke:none;" d="M 0.890625 -6.5625 L 1.765625 -6.5625 L 1.765625 -3.875 L 5 -3.875 L 5 -6.5625 L 5.890625 -6.5625 L 5.890625 0 L 5 0 L 5 -3.125 L 1.765625 -3.125 L 1.765625 0 L 0.890625 0 Z M 0.890625 -6.5625 "/>
</symbol>
<symbol overflow="visible" id="glyph1-0">
<path style="stroke:none;" d="M 0.40625 1.421875 L 0.40625 -5.640625 L 4.40625 -5.640625 L 4.40625 1.421875 Z M 0.84375 0.96875 L 3.953125 0.96875 L 3.953125 -5.1875 L 0.84375 -5.1875 Z M 0.84375 0.96875 "/>
</symbol>
<symbol overflow="visible" id="glyph1-1">
<path style="stroke:none;" d="M 3.6875 -5.015625 L 3.6875 -2.84375 L 5.859375 -2.84375 L 5.859375 -2.171875 L 3.6875 -2.171875 L 3.6875 0 L 3.03125 0 L 3.03125 -2.171875 L 0.84375 -2.171875 L 0.84375 -2.84375 L 3.03125 -2.84375 L 3.03125 -5.015625 Z M 3.6875 -5.015625 "/>
</symbol>
</g>
</defs>
<g id="surface7097">
<rect x="0" y="0" width="300" height="300" style="fill:rgb(100%,100%,100%);fill-opacity:1;stroke:none;"/>
<path style="fill:none;stroke-width:1.2;stroke-linecap:butt;stroke-linejoin:miter;stroke:rgb(0%,0%,0%);stroke-opacity:1;stroke-miterlimit:10;" d="M 122.191406 137.496094 L 120.859375 128.472656 "/>
<path style="fill:none;stroke-width:1.2;stroke-linecap:butt;stroke-linejoin:miter;stroke:rgb(100%,0%,0%);stroke-opacity:1;stroke-miterlimit:10;" d="M 120.859375 128.472656 L 119.527344 119.449219 "/>
<path style="fill:none;stroke-width:1.2;stroke-linecap:butt;stroke-linejoin:miter;stroke:rgb(0%,0%,0%);stroke-opacity:1;stroke-miterlimit:10;" d="M 117.941406 138.125 L 116.613281 129.097656 "/>
<path style="fill:none;stroke-width:1.2;stroke-linecap:butt;stroke-linejoin:miter;stroke:rgb(100%,0%,0%);stroke-opacity:1;stroke-miterlimit:10;" d="M 116.613281 129.097656 L 115.28125 120.074219 "/>
<path style="fill:none;stroke-width:1.2;stroke-linecap:butt;stroke-linejoin:miter;stroke:rgb(0%,0%,0%);stroke-opacity:1;stroke-miterlimit:10;" d="M 120.066406 137.8125 L 105.765625 149.140625 "/>
<path style="fill:none;stroke-width:1.2;stroke-linecap:butt;stroke-linejoin:miter;stroke:rgb(0%,0%,100%);stroke-opacity:1;stroke-miterlimit:10;" d="M 137.03125 144.53125 L 128.546875 141.171875 "/>
<path style="fill:none;stroke-width:1.2;stroke-linecap:butt;stroke-linejoin:miter;stroke:rgb(0%,0%,0%);stroke-opacity:1;stroke-miterlimit:10;" d="M 128.546875 141.171875 L 120.066406 137.8125 "/>
<path style=" stroke:none;fill-rule:nonzero;fill:rgb(100%,100%,100%);fill-opacity:1;" d="M 113.40625 114.261719 L 121.40625 114.261719 L 121.40625 125.261719 L 113.40625 125.261719 Z M 113.40625 114.261719 "/>
<g style="fill:rgb(100%,0%,0%);fill-opacity:1;">
  <use xlink:href="#glyph0-1" x="113.40625" y="122.924805"/>
</g>
<path style="fill:none;stroke-width:1;stroke-linecap:butt;stroke-linejoin:miter;stroke:rgb(0%,0%,0%);stroke-opacity:1;stroke-miterlimit:10;" d="M 105.765625 149.140625 L 105.765625 149.140625 M 103.210938 147.570312 L 102.828125 148.539062 M 100.65625 145.996094 L 99.886719 147.933594 M 98.101562 144.421875 L 96.949219 147.332031 M 95.546875 142.851562 L 94.011719 146.726562 M 92.992188 141.277344 L 91.070312 146.125 M 90.4375 139.707031 L 88.132812 145.523438 M 89.988281 139.429688 L 87.617188 145.414062 "/>
<path style="fill:none;stroke-width:1.2;stroke-linecap:butt;stroke-linejoin:miter;stroke:rgb(0%,0%,0%);stroke-opacity:1;stroke-miterlimit:10;" d="M 105.765625 149.140625 L 107.097656 158.167969 "/>
<path style="fill:none;stroke-width:1.2;stroke-linecap:butt;stroke-linejoin:miter;stroke:rgb(100%,0%,0%);stroke-opacity:1;stroke-miterlimit:10;" d="M 107.097656 158.167969 L 108.425781 167.191406 "/>
<path style="fill:none;stroke-width:1.2;stroke-linecap:butt;stroke-linejoin:miter;stroke:rgb(0%,0%,0%);stroke-opacity:1;stroke-miterlimit:10;" d="M 88.800781 142.421875 L 86.140625 124.371094 "/>
<path style="fill:none;stroke-width:1.2;stroke-linecap:butt;stroke-linejoin:miter;stroke:rgb(0%,0%,0%);stroke-opacity:1;stroke-miterlimit:10;" d="M 84.289062 141.242188 L 82.160156 126.804688 "/>
<path style="fill:none;stroke-width:1.2;stroke-linecap:butt;stroke-linejoin:miter;stroke:rgb(0%,0%,0%);stroke-opacity:1;stroke-miterlimit:10;" d="M 74.5 153.753906 L 88.800781 142.421875 "/>
<path style="fill:none;stroke-width:1.2;stroke-linecap:butt;stroke-linejoin:miter;stroke:rgb(0%,0%,0%);stroke-opacity:1;stroke-miterlimit:10;" d="M 86.140625 124.371094 L 69.175781 117.652344 "/>
<path style="fill:none;stroke-width:1.2;stroke-linecap:butt;stroke-linejoin:miter;stroke:rgb(0%,0%,0%);stroke-opacity:1;stroke-miterlimit:10;" d="M 69.175781 117.652344 L 54.875 128.980469 "/>
<path style="fill:none;stroke-width:1.2;stroke-linecap:butt;stroke-linejoin:miter;stroke:rgb(0%,0%,0%);stroke-opacity:1;stroke-miterlimit:10;" d="M 70.414062 122.148438 L 58.972656 131.214844 "/>
<path style="fill:none;stroke-width:1.2;stroke-linecap:butt;stroke-linejoin:miter;stroke:rgb(0%,0%,0%);stroke-opacity:1;stroke-miterlimit:10;" d="M 54.875 128.980469 L 46.394531 125.621094 "/>
<path style="fill:none;stroke-width:1.2;stroke-linecap:butt;stroke-linejoin:miter;stroke:rgb(100%,0%,0%);stroke-opacity:1;stroke-miterlimit:10;" d="M 46.394531 125.621094 L 37.910156 122.261719 "/>
<path style="fill:none;stroke-width:1.2;stroke-linecap:butt;stroke-linejoin:miter;stroke:rgb(0%,0%,0%);stroke-opacity:1;stroke-miterlimit:10;" d="M 54.875 128.980469 L 57.539062 147.03125 "/>
<path style="fill:none;stroke-width:1.2;stroke-linecap:butt;stroke-linejoin:miter;stroke:rgb(100%,0%,0%);stroke-opacity:1;stroke-miterlimit:10;" d="M 37.910156 122.261719 L 36.582031 113.238281 "/>
<path style="fill:none;stroke-width:1.2;stroke-linecap:butt;stroke-linejoin:miter;stroke:rgb(0%,0%,0%);stroke-opacity:1;stroke-miterlimit:10;" d="M 36.582031 113.238281 L 35.25 104.210938 "/>
<path style=" stroke:none;fill-rule:nonzero;fill:rgb(100%,100%,100%);fill-opacity:1;" d="M 33.910156 116.761719 L 41.910156 116.761719 L 41.910156 127.761719 L 33.910156 127.761719 Z M 33.910156 116.761719 "/>
<g style="fill:rgb(100%,0%,0%);fill-opacity:1;">
  <use xlink:href="#glyph0-1" x="33.910156" y="125.424805"/>
</g>
<path style="fill:none;stroke-width:1.2;stroke-linecap:butt;stroke-linejoin:miter;stroke:rgb(0%,0%,0%);stroke-opacity:1;stroke-miterlimit:10;" d="M 57.539062 147.03125 L 74.5 153.753906 "/>
<path style="fill:none;stroke-width:1.2;stroke-linecap:butt;stroke-linejoin:miter;stroke:rgb(0%,0%,0%);stroke-opacity:1;stroke-miterlimit:10;" d="M 60.816406 143.714844 L 74.386719 149.089844 "/>
<path style="fill:none;stroke-width:1.2;stroke-linecap:butt;stroke-linejoin:miter;stroke:rgb(100%,0%,0%);stroke-opacity:1;stroke-miterlimit:10;" d="M 108.425781 167.191406 L 116.910156 170.550781 "/>
<path style="fill:none;stroke-width:1.2;stroke-linecap:butt;stroke-linejoin:miter;stroke:rgb(0%,0%,0%);stroke-opacity:1;stroke-miterlimit:10;" d="M 116.910156 170.550781 L 125.390625 173.914062 "/>
<path style=" stroke:none;fill-rule:nonzero;fill:rgb(100%,100%,100%);fill-opacity:1;" d="M 104.425781 161.691406 L 112.425781 161.691406 L 112.425781 172.691406 L 104.425781 172.691406 Z M 104.425781 161.691406 "/>
<g style="fill:rgb(100%,0%,0%);fill-opacity:1;">
  <use xlink:href="#glyph0-1" x="104.425781" y="170.354492"/>
</g>
<path style="fill:none;stroke-width:1.2;stroke-linecap:butt;stroke-linejoin:miter;stroke:rgb(0%,0%,0%);stroke-opacity:1;stroke-miterlimit:10;" d="M 125.390625 173.914062 L 128.050781 191.964844 "/>
<path style="fill:none;stroke-width:1.2;stroke-linecap:butt;stroke-linejoin:miter;stroke:rgb(0%,0%,0%);stroke-opacity:1;stroke-miterlimit:10;" d="M 125.390625 173.914062 L 139.691406 162.582031 "/>
<path style="fill:none;stroke-width:1.2;stroke-linecap:butt;stroke-linejoin:miter;stroke:rgb(0%,0%,0%);stroke-opacity:1;stroke-miterlimit:10;" d="M 129.488281 176.144531 L 140.929688 167.078125 "/>
<path style="fill:none;stroke-width:1.2;stroke-linecap:butt;stroke-linejoin:miter;stroke:rgb(0%,0%,0%);stroke-opacity:1;stroke-miterlimit:10;" d="M 128.050781 191.964844 L 145.015625 198.683594 "/>
<path style="fill:none;stroke-width:1.2;stroke-linecap:butt;stroke-linejoin:miter;stroke:rgb(0%,0%,0%);stroke-opacity:1;stroke-miterlimit:10;" d="M 131.332031 188.644531 L 144.902344 194.019531 "/>
<path style="fill:none;stroke-width:1.2;stroke-linecap:butt;stroke-linejoin:miter;stroke:rgb(0%,0%,0%);stroke-opacity:1;stroke-miterlimit:10;" d="M 145.015625 198.683594 L 159.316406 187.351562 "/>
<path style="fill:none;stroke-width:1.2;stroke-linecap:butt;stroke-linejoin:miter;stroke:rgb(0%,0%,0%);stroke-opacity:1;stroke-miterlimit:10;" d="M 159.316406 187.351562 L 156.65625 169.300781 "/>
<path style="fill:none;stroke-width:1.2;stroke-linecap:butt;stroke-linejoin:miter;stroke:rgb(0%,0%,0%);stroke-opacity:1;stroke-miterlimit:10;" d="M 154.804688 186.171875 L 152.675781 171.734375 "/>
<path style="fill:none;stroke-width:1.2;stroke-linecap:butt;stroke-linejoin:miter;stroke:rgb(0%,0%,0%);stroke-opacity:1;stroke-miterlimit:10;" d="M 139.691406 162.582031 L 156.65625 169.300781 "/>
<path style="fill:none;stroke-width:1.2;stroke-linecap:butt;stroke-linejoin:miter;stroke:rgb(0%,0%,0%);stroke-opacity:1;stroke-miterlimit:10;" d="M 139.691406 162.582031 L 138.359375 153.554688 "/>
<path style="fill:none;stroke-width:1.2;stroke-linecap:butt;stroke-linejoin:miter;stroke:rgb(0%,0%,100%);stroke-opacity:1;stroke-miterlimit:10;" d="M 138.359375 153.554688 L 137.03125 144.53125 "/>
<path style="fill:none;stroke-width:1.2;stroke-linecap:butt;stroke-linejoin:miter;stroke:rgb(0%,0%,100%);stroke-opacity:1;stroke-miterlimit:10;" d="M 137.03125 144.53125 L 144.179688 138.867188 "/>
<path style="fill:none;stroke-width:1.2;stroke-linecap:butt;stroke-linejoin:miter;stroke:rgb(0%,0%,0%);stroke-opacity:1;stroke-miterlimit:10;" d="M 144.179688 138.867188 L 151.332031 133.199219 "/>
<path style=" stroke:none;fill-rule:nonzero;fill:rgb(100%,100%,100%);fill-opacity:1;" d="M 134.03125 139.03125 L 141.03125 139.03125 L 141.03125 150.03125 L 134.03125 150.03125 Z M 134.03125 139.03125 "/>
<g style="fill:rgb(0%,0%,100%);fill-opacity:1;">
  <use xlink:href="#glyph0-2" x="134.03125" y="147.694336"/>
</g>
<path style="fill:none;stroke-width:1.2;stroke-linecap:butt;stroke-linejoin:miter;stroke:rgb(0%,0%,0%);stroke-opacity:1;stroke-miterlimit:10;" d="M 151.332031 133.199219 L 168.292969 139.921875 "/>
<path style="fill:none;stroke-width:1.2;stroke-linecap:butt;stroke-linejoin:miter;stroke:rgb(0%,0%,0%);stroke-opacity:1;stroke-miterlimit:10;" d="M 168.292969 139.921875 L 182.59375 128.589844 "/>
<path style="fill:none;stroke-width:1.2;stroke-linecap:butt;stroke-linejoin:miter;stroke:rgb(0%,0%,0%);stroke-opacity:1;stroke-miterlimit:10;" d="M 182.59375 128.589844 L 199.558594 135.308594 "/>
<path style="fill:none;stroke-width:1.2;stroke-linecap:butt;stroke-linejoin:miter;stroke:rgb(0%,0%,0%);stroke-opacity:1;stroke-miterlimit:10;" d="M 199.558594 135.308594 L 213.859375 123.980469 "/>
<path style="fill:none;stroke-width:1.2;stroke-linecap:butt;stroke-linejoin:miter;stroke:rgb(0%,0%,0%);stroke-opacity:1;stroke-miterlimit:10;" d="M 213.859375 123.980469 L 222.339844 127.339844 "/>
<path style="fill:none;stroke-width:1.2;stroke-linecap:butt;stroke-linejoin:miter;stroke:rgb(0%,0%,100%);stroke-opacity:1;stroke-miterlimit:10;" d="M 222.339844 127.339844 L 230.824219 130.699219 "/>
<path style="fill:none;stroke-width:1.2;stroke-linecap:butt;stroke-linejoin:miter;stroke:rgb(0%,0%,100%);stroke-opacity:1;stroke-miterlimit:10;" d="M 230.824219 130.699219 L 232.15625 139.722656 "/>
<path style="fill:none;stroke-width:1.2;stroke-linecap:butt;stroke-linejoin:miter;stroke:rgb(0%,0%,0%);stroke-opacity:1;stroke-miterlimit:10;" d="M 232.15625 139.722656 L 233.484375 148.75 "/>
<path style="fill:none;stroke-width:1.2;stroke-linecap:butt;stroke-linejoin:miter;stroke:rgb(0%,0%,0%);stroke-opacity:1;stroke-miterlimit:10;" d="M 245.125 119.367188 L 237.972656 125.03125 "/>
<path style="fill:none;stroke-width:1.2;stroke-linecap:butt;stroke-linejoin:miter;stroke:rgb(0%,0%,100%);stroke-opacity:1;stroke-miterlimit:10;" d="M 237.972656 125.03125 L 230.824219 130.699219 "/>
<path style=" stroke:none;fill-rule:nonzero;fill:rgb(100%,100%,100%);fill-opacity:1;" d="M 220.824219 123.199219 L 241.824219 123.199219 L 241.824219 138.199219 L 220.824219 138.199219 Z M 220.824219 123.199219 "/>
<g style="fill:rgb(0%,0%,100%);fill-opacity:1;">
  <use xlink:href="#glyph0-2" x="220.824219" y="135.300781"/>
  <use xlink:href="#glyph0-3" x="227.801758" y="135.300781"/>
</g>
<g style="fill:rgb(0%,0%,100%);fill-opacity:1;">
  <use xlink:href="#glyph1-1" x="234.816406" y="130.417969"/>
</g>
<path style="fill:none;stroke-width:1;stroke-linecap:butt;stroke-linejoin:miter;stroke:rgb(0%,0%,0%);stroke-opacity:1;stroke-miterlimit:10;" d="M 233.484375 148.75 L 233.484375 148.75 M 230.847656 150.175781 L 231.492188 150.992188 M 228.207031 151.601562 L 229.5 153.234375 M 225.566406 153.027344 L 227.511719 155.480469 M 222.929688 154.453125 L 225.519531 157.722656 M 220.289062 155.878906 L 223.527344 159.964844 M 217.648438 157.304688 L 221.535156 162.207031 M 217.183594 157.554688 L 221.183594 162.605469 "/>
<path style="fill:none;stroke-width:1.2;stroke-linecap:butt;stroke-linejoin:miter;stroke:rgb(0%,0%,0%);stroke-opacity:1;stroke-miterlimit:10;" d="M 233.484375 148.75 L 250.449219 155.46875 "/>
<path style="fill:none;stroke-width:1.2;stroke-linecap:butt;stroke-linejoin:miter;stroke:rgb(0%,0%,0%);stroke-opacity:1;stroke-miterlimit:10;" d="M 250.449219 155.46875 L 264.75 144.136719 "/>
<path style="fill:none;stroke-width:1.2;stroke-linecap:butt;stroke-linejoin:miter;stroke:rgb(0%,0%,0%);stroke-opacity:1;stroke-miterlimit:10;" d="M 264.75 144.136719 L 262.089844 126.085938 "/>
<path style="fill:none;stroke-width:1.2;stroke-linecap:butt;stroke-linejoin:miter;stroke:rgb(0%,0%,0%);stroke-opacity:1;stroke-miterlimit:10;" d="M 262.089844 126.085938 L 245.125 119.367188 "/>
<path style=" stroke:none;fill-rule:nonzero;fill:rgb(0%,0%,0%);fill-opacity:1;" d="M 245.125 119.367188 L 245.648438 100.847656 L 239.277344 101.785156 Z M 245.125 119.367188 "/>
</g>
</svg>

<svg xmlns="http://www.w3.org/2000/svg" xmlns:xlink="http://www.w3.org/1999/xlink" width="300pt" height="300pt" viewBox="0 0 300 300"><defs><symbol overflow="visible"><path d="M.453 1.594v-7.938h4.5v7.938zm.5-.5h3.5v-6.938h-3.5zm0 0"/></symbol><symbol overflow="visible" id="a"><path d="M3.547-5.953c-.65 0-1.164.242-1.547.72-.375.48-.563 1.13-.563 1.952 0 .835.188 1.49.563 1.967.383.48.898.72 1.547.72.644 0 1.156-.24 1.53-.72.376-.476.564-1.132.564-1.968 0-.822-.187-1.474-.562-1.954-.375-.477-.887-.72-1.53-.72zm0-.734c.914 0 1.648.312 2.203.937.55.617.828 1.438.828 2.47 0 1.042-.277 1.87-.828 2.483-.555.617-1.29.922-2.203.922-.93 0-1.668-.305-2.22-.922C.774-1.41.5-2.237.5-3.28c0-1.033.273-1.853.828-2.47.55-.625 1.29-.938 2.22-.938zm0 0"/></symbol><symbol overflow="visible" id="b"><path d="M.89-6.563H2.08l2.906 5.485v-5.484h.86V0H4.656L1.75-5.484V0H.89zm0 0"/></symbol><symbol overflow="visible" id="c"><path d="M.89-6.563h.876v2.688H5v-2.688h.89V0H5v-3.125H1.766V0H.89zm0 0"/></symbol><symbol overflow="visible"><path d="M.406 1.422V-5.64h4V1.42zM.844.97h3.11v-6.157H.843zm0 0"/></symbol><symbol overflow="visible" id="d"><path d="M3.688-5.016v2.172h2.17v.672H3.69V0H3.03v-2.172H.845v-.672H3.03v-2.172zm0 0"/></symbol></defs><g><path fill="#fff" d="M0 0h300v300H0z"/><path d="M122.19 137.496l-1.33-9.023" stroke-width="1.2" stroke="#000" stroke-miterlimit="10" fill="none"/><path d="M120.86 128.473l-1.333-9.024" stroke-width="1.2" stroke="#f00" stroke-miterlimit="10" fill="none"/><path d="M117.94 138.125l-1.327-9.027" stroke-width="1.2" stroke="#000" stroke-miterlimit="10" fill="none"/><path d="M116.613 129.098l-1.332-9.024" stroke-width="1.2" stroke="#f00" stroke-miterlimit="10" fill="none"/><path d="M120.066 137.813l-14.3 11.328" stroke-width="1.2" stroke="#000" stroke-miterlimit="10" fill="none"/><path d="M137.03 144.53l-8.483-3.358" stroke-width="1.2" stroke="#00f" stroke-miterlimit="10" fill="none"/><path d="M128.547 141.172l-8.48-3.36" stroke-width="1.2" stroke="#000" stroke-miterlimit="10" fill="none"/><path d="M113.406 114.262h8v11h-8zm0 0" fill="#fff"/><use xlink:href="#a" x="113.406" y="122.925" fill="#f00"/><path d="M105.766 149.14m-2.555-1.57l-.382.97m-2.172-2.544l-.77 1.938m-1.784-3.512l-1.153 2.91m-1.403-4.48l-1.535 3.875m-1.02-5.45l-1.922 4.848m-.632-6.418l-2.305 5.816m1.855-6.093l-2.37 5.984" stroke="#000" stroke-miterlimit="10" fill="none"/><path d="M105.766 149.14l1.332 9.028" stroke-width="1.2" stroke="#000" stroke-miterlimit="10" fill="none"/><path d="M107.098 158.168l1.328 9.023" stroke-width="1.2" stroke="#f00" stroke-miterlimit="10" fill="none"/><path d="M88.8 142.422l-2.66-18.05M84.29 141.242l-2.13-14.437M74.5 153.754l14.3-11.332M86.14 124.37l-16.964-6.718M69.176 117.652l-14.3 11.328M70.414 122.148l-11.44 9.067M54.875 128.98l-8.48-3.36" stroke-width="1.2" stroke="#000" stroke-miterlimit="10" fill="none"/><path d="M46.395 125.62l-8.485-3.358" stroke-width="1.2" stroke="#f00" stroke-miterlimit="10" fill="none"/><path d="M54.875 128.98l2.664 18.05" stroke-width="1.2" stroke="#000" stroke-miterlimit="10" fill="none"/><path d="M37.91 122.262l-1.328-9.024" stroke-width="1.2" stroke="#f00" stroke-miterlimit="10" fill="none"/><path d="M36.582 113.238l-1.332-9.027" stroke-width="1.2" stroke="#000" stroke-miterlimit="10" fill="none"/><path d="M33.91 116.762h8v11h-8zm0 0" fill="#fff"/><use xlink:href="#a" x="33.91" y="125.425" fill="#f00"/><path d="M57.54 147.03l16.96 6.724M60.816 143.715l13.57 5.375" stroke-width="1.2" stroke="#000" stroke-miterlimit="10" fill="none"/><path d="M108.426 167.19l8.484 3.36" stroke-width="1.2" stroke="#f00" stroke-miterlimit="10" fill="none"/><path d="M116.91 170.55l8.48 3.364" stroke-width="1.2" stroke="#000" stroke-miterlimit="10" fill="none"/><path d="M104.426 161.69h8v11h-8zm0 0" fill="#fff"/><use xlink:href="#a" x="104.426" y="170.354" fill="#f00"/><path d="M125.39 173.914l2.66 18.05M125.39 173.914l14.3-11.332M129.488 176.145l11.442-9.067M128.05 191.965l16.966 6.72M131.332 188.645l13.57 5.375M145.016 198.684l14.3-11.332M159.316 187.352l-2.66-18.05M154.805 186.172l-2.13-14.438M139.69 162.582l16.966 6.72M139.69 162.582l-1.33-9.027" stroke-width="1.2" stroke="#000" stroke-miterlimit="10" fill="none"/><path d="M138.36 153.555l-1.33-9.024M137.03 144.53l7.15-5.663" stroke-width="1.2" stroke="#00f" stroke-miterlimit="10" fill="none"/><path d="M144.18 138.867l7.152-5.668" stroke-width="1.2" stroke="#000" stroke-miterlimit="10" fill="none"/><path d="M134.03 139.03h7v11h-7zm0 0" fill="#fff"/><use xlink:href="#b" x="134.031" y="147.694" fill="#00f"/><path d="M151.332 133.2l16.96 6.722M168.293 139.922l14.3-11.332M182.594 128.59l16.965 6.72M199.56 135.31l14.3-11.33M213.86 123.98l8.48 3.36" stroke-width="1.2" stroke="#000" stroke-miterlimit="10" fill="none"/><path d="M222.34 127.34l8.484 3.36M230.824 130.7l1.332 9.023" stroke-width="1.2" stroke="#00f" stroke-miterlimit="10" fill="none"/><path d="M232.156 139.723l1.328 9.027M245.125 119.367l-7.152 5.664" stroke-width="1.2" stroke="#000" stroke-miterlimit="10" fill="none"/><path d="M237.973 125.03l-7.15 5.67" stroke-width="1.2" stroke="#00f" stroke-miterlimit="10" fill="none"/><path d="M220.824 123.2h21v15h-21zm0 0" fill="#fff"/><g fill="#00f"><use xlink:href="#b" x="220.824" y="135.301"/><use xlink:href="#c" x="227.802" y="135.301"/></g><use xlink:href="#d" x="234.816" y="130.418" fill="#00f"/><path d="M233.484 148.75m-2.636 1.426l.644.816m-3.285.61l1.293 1.632m-3.934-.207l1.946 2.453m-4.582-1.027l2.59 3.27m-5.23-1.844l3.237 4.085m-5.88-2.66l3.888 4.902m-4.35-4.652l4 5.05" stroke="#000" stroke-miterlimit="10" fill="none"/><path d="M233.484 148.75l16.965 6.72M250.45 155.47l14.3-11.333M264.75 144.137l-2.66-18.05M262.09 126.086l-16.965-6.72" stroke-width="1.2" stroke="#000" stroke-miterlimit="10" fill="none"/><path d="M245.125 119.367l.523-18.52-6.37.938zm0 0"/></g></svg>
